source/assets/images/icons/truck.svg

<?xml version="1.0" encoding="UTF-8" standalone="no"?>
<!DOCTYPE svg PUBLIC "-//W3C//DTD SVG 1.1//EN" "http://www.w3.org/Graphics/SVG/1.1/DTD/svg11.dtd">
<svg width="100%" height="100%" viewBox="0 0 20 20" version="1.1" xmlns="http://www.w3.org/2000/svg" xmlns:xlink="http://www.w3.org/1999/xlink" xml:space="preserve" xmlns:serif="http://www.serif.com/" style="fill-rule:evenodd;clip-rule:evenodd;stroke-linejoin:round;stroke-miterlimit:2;">
    <path d="M8,16.5C8,17.323 7.323,18 6.5,18C5.677,18 5,17.323 5,16.5C5,15.677 5.677,15 6.5,15C7.323,15 8,15.677 8,16.5ZM15,16.5C15,17.323 14.323,18 13.5,18C12.677,18 12,17.323 12,16.5C12,15.677 12.677,15 13.5,15C14.323,15 15,15.677 15,16.5Z" style="fill-rule:nonzero;"/>
    <path d="M3,4C2.451,4 2,4.451 2,5L2,15C2,15.549 2.451,16 3,16L4.05,16C4.286,14.839 5.316,13.997 6.5,13.997C7.684,13.997 8.714,14.839 8.95,16L10,16C10.549,16 11,15.549 11,15L11,5C11,4.451 10.549,4 10,4L3,4ZM14,7C13.451,7 13,7.451 13,8L13,14.05C13.165,14.016 13.332,13.999 13.5,13.999C14.684,13.999 15.714,14.84 15.95,16L17,16C17.549,16 18,15.549 18,15L18,10C18,9.735 17.894,9.48 17.707,9.293L15.707,7.293C15.52,7.106 15.265,7 15,7L14,7Z" style="fill-rule:nonzero;"/>
</svg>

<svg xmlns="http://www.w3.org/2000/svg" viewBox="0 0 20 20" class="h-5 w-5">
  <path d="M8 16.5a1.5 1.5 0 11-3 0 1.5 1.5 0 013 0zM15 16.5a1.5 1.5 0 11-3 0 1.5 1.5 0 013 0z" />
  <path d="M3 4a1 1 0 00-1 1v10a1 1 0 001 1h1.05a2.5 2.5 0 014.9 0H10a1 1 0 001-1V5a1 1 0 00-1-1H3zM14 7a1 1 0 00-1 1v6.05A2.5 2.5 0 0115.95 16H17a1 1 0 001-1v-5a1 1 0 00-.293-.707l-2-2A1 1 0 0015 7h-1z" />
</svg>
